X: 81
T:Paddy Taylor's
M:6/8
L:1/8
R:Jig
D:Session tape - Belfast 1987
Z:Bernie Stocks
K:D
F3 EDC | DFA d2d | d2d cAG | F2F GFE | F3 EDC | DFA def | ecd ABc | dfe d3 ::\
f2d g2e | fdB A2B | =c3 EFG | ABA FED | f2d g2e | fdB ABc | Bcd ecA | dfe d3:|
<end>
<start>
